!! 00000] TT[WS
!!!OTL: Huolang maihuo
!!!ARE: Asia, China, Shanxi
!! Ethnic Group: Han
!! WI, 69 (1)
!!!SCT: J0081
!!!YEM: Copyright 1995, estate of Helmut Schaffrath.
**kern
*ICvox
*Ivox
!! Mixed meters:  3/8; 4/8
*M4/8
*k[]
*C:
{8e
8g
8g
=1
4cc
8cc
=2
8ee
8ee
8dd
8dd
=3
8ee
16dd
16ee
8dd
8cc}
=4
{8r
8ee
8dd
8ee
=5
8dd
8a
4cc
=6
8cc
8cc
8a
8g
=7
*M3/8
4.e}
=8
{4e
8g
=9
*M4/8
8a
8g
8e
8d
=10
8a
8g
8e
8d
=11
8e
8r
8dd
8dd}
=12
*M3/8
{8ee
8cc
8dd
=13
*M4/8
8cc
8cc
4a
=14
8g
8cc
8a
8g
=15
4.e}
==
!!!AGN: Xiaodiao. Laodong, Maimai
!!!ONB: ESAC (Essen Associative Code) Database: CHINA
!!!AMT: irregular
!!!AIN: vox
!!!EED: Helmut Schaffrath
!!!EEV: 1.0
*-
